icons/CalendarCheck_filled.svg

<svg width="24" height="24" viewBox="0 0 24 24" fill="none" xmlns="http://www.w3.org/2000/svg">
<path fill-rule="evenodd" clip-rule="evenodd" d="M8,2.5c0.41421,0 0.75,0.33579 0.75,0.75v1.25h6.5v-1.25c0,-0.41421 0.3358,-0.75 0.75,-0.75c0.4142,0 0.75,0.33579 0.75,0.75v1.25h1.25c1.5188,0 2.75,1.23122 2.75,2.75v4v0.75v0.8448c-0.5024,0.1292 -0.9779,0.3905 -1.3713,0.7839l-0.1287,0.1287v-1.7574h-14.5v7.25c0,0.6904 0.55964,1.25 1.25,1.25h7.0073l1.5,1.5h-8.5073c-1.51878,0 -2.75,-1.2312 -2.75,-2.75v-7.25v-0.75v-4c0,-1.51878 1.23122,-2.75 2.75,-2.75h1.25v-1.25c0,-0.41421 0.33579,-0.75 0.75,-0.75zM17.5303,20.7803c-0.2929,0.2929 -0.7677,0.2929 -1.0606,0l-2.5,-2.5c-0.2929,-0.2929 -0.2929,-0.7677 0,-1.0606c0.2929,-0.2929 0.7677,-0.2929 1.0606,0l1.9697,1.9697l3.9697,-3.9697c0.2929,-0.2929 0.7677,-0.2929 1.0606,0c0.2929,0.2929 0.2929,0.7677 0,1.0606z" fill="#002B51"/>
</svg>

<svg width="24" height="24" viewBox="0 0 24 24" fill="none" xmlns="http://www.w3.org/2000/svg">
<path fill-rule="evenodd" clip-rule="evenodd" d="M8 2.5C8.41421 2.5 8.75 2.83579 8.75 3.25V4.5H15.25V3.25C15.25 2.83579 15.5858 2.5 16 2.5C16.4142 2.5 16.75 2.83579 16.75 3.25V4.5H18C19.5188 4.5 20.75 5.73122 20.75 7.25V11.25V12V12.8448C20.2476 12.974 19.7721 13.2353 19.3787 13.6287L19.25 13.7574V12H4.75V19.25C4.75 19.9404 5.30964 20.5 6 20.5H13.0073L14.5073 22H6C4.48122 22 3.25 20.7688 3.25 19.25V12V11.25V7.25C3.25 5.73122 4.48122 4.5 6 4.5H7.25V3.25C7.25 2.83579 7.58579 2.5 8 2.5ZM22.0303 16.2803C22.3232 15.9874 22.3232 15.5126 22.0303 15.2197C21.7374 14.9268 21.2626 14.9268 20.9697 15.2197L17 19.1894L15.0303 17.2197C14.7374 16.9268 14.2626 16.9268 13.9697 17.2197C13.6768 17.5126 13.6768 17.9874 13.9697 18.2803L16.4697 20.7803C16.7626 21.0732 17.2374 21.0732 17.5303 20.7803L22.0303 16.2803Z" fill="#002B51"/>
</svg>
